packages/ffe-icons/icons/filled/lg/lab_panel.svg

<svg xmlns="http://www.w3.org/2000/svg" height="40" viewBox="0 -960 960 960" width="40"><path d="M122.565-140.001q-25.872 0-44.218-18.346-18.345-18.346-18.345-44.218v-194.87q0-25.872 18.345-44.218 18.346-18.346 44.218-18.346h17.436v-175.282h-3.846q-15.667-4.205-25.91-17.294-10.244-13.09-10.244-30.756v-64.873q0-21.255 14.885-36.14 14.884-14.884 36.14-14.884h217.948q21.256 0 36.14 14.884 14.885 14.885 14.885 36.14v64.873q0 17.666-10.244 30.756-10.243 13.089-25.91 17.294h-3.846v175.282h200.002v-175.282h-3.846q-15.666-4.205-25.91-17.294-10.244-13.09-10.244-30.756v-64.873q0-21.255 14.885-36.14 14.884-14.884 36.14-14.884h217.948q21.256 0 36.14 14.884 14.885 14.885 14.885 36.14v64.873q0 17.666-10.244 30.756-10.244 13.089-25.91 17.294h-3.846v175.282h17.436q25.872 0 44.218 18.346 18.346 18.346 18.346 44.218v194.87q0 25.872-18.346 44.218-18.346 18.346-44.218 18.346h-714.87Zm507.691-319.998h139.488v-172.308H630.256v172.308Zm-440 0h139.488v-172.308H190.256v172.308Z"/></svg>

<svg xmlns="http://www.w3.org/2000/svg" viewBox="0 -960 960 960" width="32" height="32"><path d="M122.57-140q-25.88 0-44.22-18.35Q60-176.69 60-202.57v-194.86q0-25.88 18.35-44.22Q96.69-460 122.57-460H140v-175.28h-3.84q-15.67-4.21-25.92-17.3Q100-665.66 100-683.33v-64.87q0-21.26 14.89-36.14 14.88-14.89 36.14-14.89h217.94q21.26 0 36.14 14.89Q420-769.46 420-748.2v64.87q0 17.67-10.24 30.75-10.25 13.09-25.92 17.3H380V-460h200v-175.28h-3.84q-15.67-4.21-25.92-17.3Q540-665.66 540-683.33v-64.87q0-21.26 14.89-36.14 14.88-14.89 36.14-14.89h217.94q21.26 0 36.14 14.89Q860-769.46 860-748.2v64.87q0 17.67-10.24 30.75-10.25 13.09-25.92 17.3H820V-460h17.43q25.88 0 44.22 18.35Q900-423.31 900-397.43v194.86q0 25.88-18.35 44.22Q863.31-140 837.43-140H122.57Zm507.69-320h139.48v-172.31H630.26V-460Zm-440 0h139.48v-172.31H190.26V-460Z"/></svg>
